svg/icon-city-id-card.svg

<svg viewBox="0 0 20 17" xmlns="http://www.w3.org/2000/svg" fill-rule="evenodd" clip-rule="evenodd" stroke-linejoin="round" stroke-miterlimit="1.414"><path d="M20 15.6c0 .2-.2.4-.4.4H.4c-.2 0-.4-.2-.4-.4V1.5c0-.3.2-.5.4-.5h19.1c.3 0 .5.2.5.5v14.1z" fill="#118df0" fill-rule="nonzero"/><g fill="#fff"><path d="M10 9h7v2h-7zM10 6h7v2h-7z"/></g><g fill="#fff"><path d="M1.8 12.4v-.3c0-1.8 1.4-3.2 3.2-3.2 1.8 0 3.2 1.4 3.2 3.2v.3" fill-rule="nonzero"/><circle cx="5" cy="7" r="2.2"/></g></svg>

<svg viewBox="0 0 20 17" xmlns="http://www.w3.org/2000/svg" fill-rule="evenodd" clip-rule="evenodd" stroke-linejoin="round" stroke-miterlimit="1.414"><path d="M20,15.6c0,0.2 -0.2,0.4 -0.4,0.4l-19.2,0c-0.2,0 -0.4,-0.2 -0.4,-0.4l0,-14.1c0,-0.3 0.2,-0.5 0.4,-0.5l19.1,0c0.3,0 0.5,0.2 0.5,0.5l0,14.1Z" fill="#118df0" fill-rule="nonzero"/><g fill="#fff"><path d="M10 9H17V11H10zM10 6H17V8H10z"/></g><g fill="#fff"><path d="M1.8,12.4c0,-0.1 0,-0.2 0,-0.3c0,-1.8 1.4,-3.2 3.2,-3.2c1.8,0 3.2,1.4 3.2,3.2c0,0.1 0,0.2 0,0.3" fill-rule="nonzero"/><circle cx="5" cy="7" r="2.2"/></g></svg>
